icons/lines/bookmark.svg

<svg xmlns="http://www.w3.org/2000/svg" width="24" height="24" viewBox="0 0 24 24" fill="none" stroke="currentColor" stroke-width="2" stroke-linecap="round" stroke-linejoin="round">
  <path d="M15 22c5 0 7-2 7-7V9c0-5-2-7-7-7H9C4 2 2 4 2 9v6c0 5 2 7 7 7z" />
  <path d="M17 2.44v9.98c0 1.97-1.41 2.74-3.14 1.7l-1.32-.79c-.3-.18-.78-.18-1.08 0l-1.32.79C8.41 15.15 7 14.39 7 12.42V2.44" />
</svg>

<svg xmlns="http://www.w3.org/2000/svg" width="24" height="24" viewBox="0 0 24 24" fill="none" stroke="currentColor" stroke-width="2" stroke-linecap="round" stroke-linejoin="round" >
  <path d="M9 22H15C20 22 22 20 22 15V9C22 4 20 2 15 2H9C4 2 2 4 2 9V15C2 20 4 22 9 22Z"/>
  <path d="M17 2.44V12.42C17 14.39 15.59 15.16 13.86 14.12L12.54 13.33C12.24 13.15 11.76 13.15 11.46 13.33L10.14 14.12C8.41 15.15 7 14.39 7 12.42V2.44"/>
  <path d="M9 22H15C20 22 22 20 22 15V9C22 4 20 2 15 2H9C4 2 2 4 2 9V15C2 20 4 22 9 22Z"/>
  <path d="M17 2.44V12.42C17 14.39 15.59 15.16 13.86 14.12L12.54 13.33C12.24 13.15 11.76 13.15 11.46 13.33L10.14 14.12C8.41 15.15 7 14.39 7 12.42V2.44"/>
  </svg>
